wilib/img/svg/nota_musical_3.svg

<svg xmlns="http://www.w3.org/2000/svg" xmlns:xlink="http://www.w3.org/1999/xlink" preserveAspectRatio="none" width="41" height="53" viewBox="0 0 41 53"><defs><path d="M16.2 43.1q3.2-2.2 3.2-3.55V13.7l16.65 6.1.85 19.2q-4-2.3-7-2.3-2.9 0-5.2 1.8-2.9 2.35-2.8 6.6.1 4.1 3.7 6 2.5 1.3 5 1.15 2.35-.1 5.9-1.75 4.4-2.1 4.35-4.6-.05-3.8-1.35-36.75L15.7 0l-.55 32.4q-2.95-1.95-6.25-1.95-3.05 0-5.7 1.85Q0 34.45 0 38q0 7.6 8.8 7.6 3.75 0 7.4-2.5m19.7-30.9v3.2l-16.7-6 .1-3.1 16.6 5.9z" id="a"/></defs><use xlink:href="#a"/></svg>

<svg xmlns="http://www.w3.org/2000/svg" version="1.1" xmlns:xlink="http://www.w3.org/1999/xlink" preserveAspectRatio="none" x="0px" y="0px" width="41px" height="53px" viewBox="0 0 41 53">
<defs>
<g id="gr_nota02_0_Layer0_0_FILL">
<path fill="#000000" stroke="none" d="
M 16.2 43.1
Q 19.4 40.9 19.4 39.55
L 19.4 13.7 36.05 19.8 36.9 39
Q 32.9 36.7 29.9 36.7 27 36.7 24.7 38.5 21.8 40.85 21.9 45.1 22 49.2 25.6 51.1 28.1 52.4 30.6 52.25 32.95 52.15 36.5 50.5 40.9 48.4 40.85 45.9 40.8 42.1 39.5 9.15
L 15.7 0 15.15 32.4
Q 12.2 30.45 8.9 30.45 5.85 30.45 3.2 32.3 0 34.45 0 38 0 45.6 8.8 45.6 12.55 45.6 16.2 43.1
M 35.9 12.2
L 35.9 15.4 19.2 9.4 19.3 6.3 35.9 12.2 Z"/>
</g>
</defs>

<g transform="matrix( 1, 0, 0, 1, 0,0) ">
<g transform="matrix( 1, 0, 0, 1, 0,0) ">
<use xlink:href="#gr_nota02_0_Layer0_0_FILL"/>
</g>
</g>
</svg>
